X:105
T:Germans III
M:4/4
K:D
F:http://blackrosetheband.googlepages.com/ABCTUNES.ABC May 2009
L:1/8
FG|:"D"ABAF DE (3FED|"G"+D2B,2+ +D2B,2+ "D"+D2A,2+ DE|FEFA BAFD|"A"E2 ED E2 FG|
"D"ABAF DE (3FED|"G"+D2B,2+ +D2B,2+ "D"+D2A,2+ DE|FEFD "A"EDEF|1 "D"D2 D2 D2 FG:|2 "D"D2 D2 D2 FA|
|:"G"B2 BA BcdB|"D"A2 AB AFDF|AFAF BAFD|"A"E2 ED E2 FG|"D"ABAF DE (3FED|
"G"+D2B,2+ +D2B,2+ "D"+D2A,2+ DE|FEFD "A"EDEF|1 "D"D2 D2 D2 FA:|2 "D"D2 D2 D2 FG||
